products/org.csstudio.iter.css.product/SymbolLibrary_full_hd/SVG/Fluid/Heat_Exchangers/HX Shell and Tube with fixed tube sheets.svg

<?xml version="1.0" encoding="UTF-8" standalone="no"?>
<!--
/*******************************************************************************
* Copyright (c) 2010-2016 ITER Organization.
* All rights reserved. This program and the accompanying materials
* are made available under the terms of the Eclipse Public License v1.0
* which accompanies this distribution, and is available at
* http://www.eclipse.org/legal/epl-v10.html
******************************************************************************/
-->
<!-- Généré par Microsoft Visio 11.0, SVG Export, v1.0 FL_EF0303.svg Page-1 -->

<svg
   xmlns:v="http://schemas.microsoft.com/visio/2003/SVGExtensions/"
   xmlns:dc="http://purl.org/dc/elements/1.1/"
   xmlns:cc="http://creativecommons.org/ns#"
   xmlns:rdf="http://www.w3.org/1999/02/22-rdf-syntax-ns#"
   xmlns:svg="http://www.w3.org/2000/svg"
   xmlns="http://www.w3.org/2000/svg"
   xmlns:sodipodi="http://sodipodi.sourceforge.net/DTD/sodipodi-0.dtd"
   xmlns:inkscape="http://www.inkscape.org/namespaces/inkscape"
   width="98"
   height="34"
   viewBox="0 0 78.400183 27.199999"
   xml:space="preserve"
   color-interpolation-filters="sRGB"
   class="st2"
   id="svg2"
   version="1.1"
   inkscape:version="0.48.2 r9819"
   sodipodi:docname="FL_EF0303.svg"
   style="font-size:12px;fill:none;stroke-linecap:square;stroke-miterlimit:3;overflow:visible"><metadata
   id="metadata47"><rdf:RDF><cc:Work
       rdf:about=""><dc:format>image/svg+xml</dc:format><dc:type
         rdf:resource="http://purl.org/dc/dcmitype/StillImage" /></cc:Work></rdf:RDF></metadata><defs
   id="defs45">
		
		<v:pageProperties
   v:shadowOffsetY="-8.50394"
   v:shadowOffsetX="8.50394"
   v:drawingUnits="24"
   v:pageScale="0.0393701"
   v:drawingScale="0.0393701" />
		
		
	
			
			
		
			
			
			
		
				
				
			
				
				
			
				
				
				
				
				
				
				
				
			</defs><sodipodi:namedview
   pagecolor="#ffffff"
   bordercolor="#666666"
   borderopacity="1"
   objecttolerance="10"
   gridtolerance="10"
   guidetolerance="10"
   inkscape:pageopacity="0"
   inkscape:pageshadow="2"
   inkscape:window-width="1366"
   inkscape:window-height="716"
   id="namedview43"
   showgrid="true"
   fit-margin-top="0"
   fit-margin-left="0"
   fit-margin-right="0"
   fit-margin-bottom="0"
   inkscape:zoom="10.80491"
   inkscape:cx="49.121431"
   inkscape:cy="16.93991"
   inkscape:window-x="-8"
   inkscape:window-y="-8"
   inkscape:window-maximized="1"
   inkscape:current-layer="svg2"><inkscape:grid
     type="xygrid"
     id="grid3067"
     empspacing="5"
     visible="true"
     enabled="true"
     snapvisiblegridlinesonly="true" /></sodipodi:namedview>
	<v:documentProperties
   v:langID="1036"
   v:metric="true"
   v:viewMarkup="false" />
	<style
   type="text/css"
   id="style4">
	
		.st1 {fill:#ffffff;stroke:none;stroke-linecap:round;stroke-linejoin:round;stroke-width:0.72}
		.st2 {fill:none;fill-rule:evenodd;font-size:12;overflow:visible;stroke-linecap:square;stroke-miterlimit:3}
		.st3 {fill:#ffffff}
		.st4 {stroke:#000000;stroke-linecap:round;stroke-linejoin:round;stroke-width:0.72}
	
	</style>
	<g
   id="g3169"><rect
     x="-4.0093994e-008"
     y="-0.016024251"
     width="0.0159449"
     height="0.0159449"
     class="st1"
     id="rect16"
     style="fill:#ffffff;stroke:none" /><rect
     x="78.400185"
     y="27.184038"
     width="0.0159449"
     height="0.0159449"
     class="st1"
     id="rect21"
     style="fill:#ffffff;stroke:none" /><path
     d="m 64.251961,0.828651 9.46,0 a 23.351,23.351 0 0 1 0,25.51 l -18.88,0 -42.52,0 -7.5500001,0 a 23.351,23.351 0 0 1 0,-25.51 l 7.5500001,0 51.94,0 z"
     class="st3"
     id="path29"
     inkscape:connector-curvature="0"
     style="fill:#ffffff" /><path
     d="m 69.001961,26.338651 0,-25.51"
     class="st4"
     id="path31"
     inkscape:connector-curvature="0"
     style="stroke:#000000;stroke-width:0.72000003;stroke-linecap:round;stroke-linejoin:round" /><path
     d="m 64.251961,0.828651 9.46,0 a 23.351,23.351 0 0 1 0,25.51 l -18.88,0 -42.52,0 -7.5500001,0 a 23.351,23.351 0 0 1 0,-25.51 l 7.5500001,0 51.94,0"
     class="st4"
     id="path33"
     inkscape:connector-curvature="0"
     style="stroke:#000000;stroke-width:0.72000003;stroke-linecap:round;stroke-linejoin:round" /><path
     d="m 69.001961,6.108651 -59.5300001,0"
     class="st4"
     id="path35"
     inkscape:connector-curvature="0"
     style="stroke:#000000;stroke-width:0.72000003;stroke-linecap:round;stroke-linejoin:round" /><path
     d="m 69.001961,13.588651 -59.5300001,0"
     class="st4"
     id="path37"
     inkscape:connector-curvature="0"
     style="stroke:#000000;stroke-width:0.72000003;stroke-linecap:round;stroke-linejoin:round" /><path
     d="m 69.001961,20.668651 -59.5300001,0"
     class="st4"
     id="path39"
     inkscape:connector-curvature="0"
     style="stroke:#000000;stroke-width:0.72000003;stroke-linecap:round;stroke-linejoin:round" /><path
     d="m 9.4719609,26.338651 0,-25.51"
     class="st4"
     id="path41"
     inkscape:connector-curvature="0"
     style="stroke:#000000;stroke-width:0.72000003;stroke-linecap:round;stroke-linejoin:round" /></g>
</svg>

<?xml version="1.0" encoding="UTF-8"?>
<!--
/*******************************************************************************
* Copyright (c) 2010-2017 ITER Organization.
* All rights reserved. This program and the accompanying materials
* are made available under the terms of the Eclipse Public License v1.0
* which accompanies this distribution, and is available at
* http://www.eclipse.org/legal/epl-v10.html
******************************************************************************/
-->
<svg xmlns="http://www.w3.org/2000/svg" xmlns:xlink="http://www.w3.org/1999/xlink" width="83pt" height="29pt" viewBox="0 0 83 29" version="1.1">
<g id="surface1">
<path style=" stroke:none;fill-rule:evenodd;fill:rgb(100%,100%,100%);fill-opacity:1;" d="M 67.929688 0.878906 L 77.929688 0.878906 C 83.273438 9.113281 83.273438 19.738281 77.929688 27.972656 L 5.035156 27.972656 C -0.3125 19.738281 -0.3125 9.113281 5.035156 0.878906 Z M 67.929688 0.878906 "/>
<path style="fill:none;stroke-width:0.72;stroke-linecap:round;stroke-linejoin:round;stroke:rgb(0%,0%,0%);stroke-opacity:1;stroke-miterlimit:3;" d="M 69.003842 26.339334 L 69.003842 0.827556 " transform="matrix(1.057233,0,0,1.062009,0,0.0000342444)"/>
<path style="fill:none;stroke-width:0.72;stroke-linecap:round;stroke-linejoin:round;stroke:rgb(0%,0%,0%);stroke-opacity:1;stroke-miterlimit:3;" d="M 64.252346 0.827556 L 73.711001 0.827556 C 78.765469 8.581135 78.765469 18.585755 73.711001 26.339334 L 4.76258 26.339334 C -0.295583 18.585755 -0.295583 8.581135 4.76258 0.827556 L 64.252346 0.827556 " transform="matrix(1.057233,0,0,1.062009,0,0.0000342444)"/>
<path style="fill:none;stroke-width:0.72;stroke-linecap:round;stroke-linejoin:round;stroke:rgb(0%,0%,0%);stroke-opacity:1;stroke-miterlimit:3;" d="M 69.003842 6.109406 L 9.473434 6.109406 " transform="matrix(1.057233,0,0,1.062009,0,0.0000342444)"/>
<path style="fill:none;stroke-width:0.72;stroke-linecap:round;stroke-linejoin:round;stroke:rgb(0%,0%,0%);stroke-opacity:1;stroke-miterlimit:3;" d="M 69.003842 13.590801 L 9.473434 13.590801 " transform="matrix(1.057233,0,0,1.062009,0,0.0000342444)"/>
<path style="fill:none;stroke-width:0.72;stroke-linecap:round;stroke-linejoin:round;stroke:rgb(0%,0%,0%);stroke-opacity:1;stroke-miterlimit:3;" d="M 69.003842 20.667598 L 9.473434 20.667598 " transform="matrix(1.057233,0,0,1.062009,0,0.0000342444)"/>
<path style="fill:none;stroke-width:0.72;stroke-linecap:round;stroke-linejoin:round;stroke:rgb(0%,0%,0%);stroke-opacity:1;stroke-miterlimit:3;" d="M 9.473434 26.339334 L 9.473434 0.827556 " transform="matrix(1.057233,0,0,1.062009,0,0.0000342444)"/>
</g>
</svg>
